X: 17702
T: Holy Land, The
R: reel
M: 4/4
K: Dmajor
A|B3 c A2 Bc|dF3 DFAd|BG G2 ABdf|afeg fdd2|
B3 c A2 Bc|dF3 DFAd|BG G2 ABdf|afeg fdde||
f2 df dfaf|gfed (3Bcd eg|f2 df dfaf|gfeg fdde|
f2 df dfaf|gfed cdeg|dfaf g2 ag|(3fgf eg fdd2||

